!!!!SEGMENT: pl-kk--kk-i-3--014-002_anonim--angelicum-benedictus.krn
!!!cenid: 15xx:616
!!!COM: Anonim
!!!COM-rismID: pe30004985
!!!CDT:
!!!CNT:
!!!OPR: Angelicum
!!!OTL: Benedictus
!!!OMV: 002
!!!PDT:
!!!AGN:
!!!SMS-siglum: PL-Kk
!!!SMS-shelfmark: Kk.I.3
!!!SMS-shelfwork: 014-002 M
!!!SMS-variant:
!!!SMS-altvar:
!!!NIFC-rismSourceID: 1001145493
!!!NIFC-rismChildID: 1001145493
!!!NIFC-islandoraID: pl-kk:1170
!!!URL-pdf-islandora: https://repozytorium.nifc.pl/islandora/object/pl-kk%3A1170/datastream/PDF/view
!!!URL-scan: https://polish.musicsources.pl/pl/lokalizacje/galeria/rekopisy/5919 @EN{Scan on Polish Music Sources Website} @PL{Skany w portalu Dziedzictwo Muzyki Polskiej w otwartym dostępie}
!!!IIIF:
!!!ONB-nifc: UWAGA: Discantus (s. 68r, skan 0070), Tenor (s. 47r, skan 0219), Bassus (s. 63v-64r, skan 0367)
!!!AIN: 1 bass 1 empty 1 tenor
!!!key:
**kern	**text	**kern	**text	**kern	**text
*part3	*part3	*part2	*part2	*part1	*part1
*staff3	*staff3	*staff2	*staff2	*staff1	*staff1
*Ibass	*	*Itenor	*	*Iempty	*
*I"Bassus	*	*I"Tenore	*	*I"Discantus	*
*I'B	*	*I'T.	*	*I'D	*
*ICvox	*	*ICvox	*	*ICvox	*
*clefF3	*	*clefC4	*	*clefC3	*
*k[]	*	*k[]	*	*k[]	*
*e:	*	*e:	*	*e:	*
=1-	=1-	=1-	=1-	=1-	=1-
1E/	Be-	1e\	Be-	1e\	Be-
1G\	-ne-	1B\	-ne-	1d\	-ne-
=2-	=2-	=2-	=2-	=2-	=2-
*	*	*lig	*	*	*
1C/	-di-	1c\	-di-	1e\	-di-
*lig	*	*	*	*	*
1G\	.	1B\	.	1g\	.
*	*	*Xlig	*	*	*
=3-	=3-	=3-	=3-	=3-	=3-
1A\	.	1A\	.	1e\	.
*Xlig	*	*	*	*	*
*custos:E	*	*custos:B	*	*	*
1E/	-ctus	1B\	-ctus	1e\	-ctus
!LO:LB:g=original	!	!LO:LB:g=original	!	!	!
=4-	=4-	=4-	=4-	=4-	=4-
*lig	*	*lig	*	*	*
*	*	*	*	*custos:d	*
1E/	qui	1B\	qui	0e\	qui
1AA/	.	1c\	.	.	.
*Xlig	*	*Xlig	*	*	*
!	!	!	!	!LO:LB:g=original	!
=5-	=5-	=5-	=5-	=5-	=5-
1BB/	.	1d\	.	1d\	.
*	*	*lig	*	*lig	*
2AA/	.	1e\	ve-	1c\	ve-
1A\	ve-	.	.	.	.
=6-	=6-	=6-	=6-	=6-	=6-
.	.	1d\	.	1B/	.
2G/	.	.	.	.	.
*	*	*Xlig	*	*Xlig	*
*	*	*lig	*	*	*
1A\	.	1c\	.	2A/	.
*	*	*	*	*2\right	*
.	.	.	.	2e\	.
=7-	=7-	=7-	=7-	=7-	=7-
2D/	.	1d\	.	2f\	.
2G/	.	.	.	2g\	.
*lig	*	*Xlig	*	*	*
*	*	*lig	*	*	*
1A\	-nit	1c\	-nit	1e\	-nit
=8-	=8-	=8-	=8-	=8-	=8-
1E/	.	1B\	.	1e\	in
*Xlig	*	*Xlig	*	*	*
1B\	in	1G/	in	1g\	.
=9-	=9-	=9-	=9-	=9-	=9-
*2\right	*	*lig	*	*	*
2c\	.	1A\	.	2e/	.
1A\	.	.	.	2f\	.
.	.	1B\	.	1g\	.
2G/	.	.	.	.	.
*	*	*Xlig	*	*	*
=10-	=10-	=10-	=10-	=10-	=10-
*custos:E	*	*	*	*	*
*	*	*lig	*	*	*
1A\	.	1c\	no-	0e\	no-
!LO:PB:g=original	!	!	!	!	!
1G\	.	1B\	.	.	.
*	*	*Xlig	*	*	*
=11-	=11-	=11-	=11-	=11-	=11-
*lig	*	*lig	*	*	*
1A\	.	1A\	.	0c\	.
1E/	.	1G/	.	.	.
*Xlig	*	*Xlig	*	*	*
!!linebreak:original
=12-	=12-	=12-	=12-	=12-	=12-
*	*	*	*	*custos:c	*
1B\	mi-	1E/	-mi-	2B/	-mi-
!	!	!	!	!LO:LB:g=original	!
.	.	.	.	2c/	-ne
1G\	-ne	1C/	-ne	2G/	.
.	.	.	.	1c\	do-
=13-	=13-	=13-	=13-	=13-	=13-
*lig	*	*lig	*	*	*
1F\	do-	1D/	do-	.	.
.	.	.	.	2B/	.
1E/	.	1E/	.	1c\	.
*Xlig	*	*Xlig	*	*	*
=14-	=14-	=14-	=14-	=14-	=14-
*lig	*	*lig	*	*	*
1F\	-mi-	1F/	-mi-	2A/	.
.	.	.	.	1d\	.
1C/	.	1E/	.	.	.
.	.	.	.	2c\	.
*Xlig	*	*Xlig	*	*	*
=15-	=15-	=15-	=15-	=15-	=15-
1c\	.	1D/	.	1d\	-mi-
!	!	!	!	!LO:N:vis=0	!
0B\;<	-ni	0E/	-ni	0B;/	-ni
*	*	*	*	*custos:B	*
!	!	!	!	!LO:TX:b:t=OSANNA UT SUP	!
==-	==-	==-	==-	==-	==-
*-	*-	*-	*-	*-	*-
!!!system-decoration: [(s1,s2,s3)]
!!!RDF**kern: < = below
!!!ENC: Andrzej Gręziak
!!!END: 2022-01-03
!!!ENC: Leszek Kubiak
!!!END: 2022-01-04
!!!YEC: Copyright 2022 Narodowy Instytut Fryderyka Chopina (https://polishscores.org)
!!!YEM: License CC-BY-4.0 (https://creativecommons.org/licenses/by/4.0)
